!!!OTL: 82. Zay gezunt
!!!Genre:	Zay gezunt
!!!Mode:	Freygish
!!!Listening/dance:	listening
!!!:	*c:
!!!One_Mode:	no
**kern
*I"P1
*clefG2
*k[b-e-a-]
*G:frey
*M4/4
*>A
!LO:TX:a:i:t=G-freygish
4g
=1
8bnL
(8qcc/
8b)
(8qcc/
8b)
(8qcc/
8bJ)
(8qcc/
4b)
8a-L
8gJ
=2
8ccL
(8qdd/
8cc)
(8qdd/
8cc)
(8qdd/
8ccJ)
(4.cc
16ddLL
16ccJJ)
=3
8bnL
8cc
8dd
8ee-J
4ff
12ee-L
12dd
12ccJ
=4
8ddL
8dd
8dd
8ggJ
(8qgg/
2g)
=5
(8qg/
8bnL)
(8qcc/
8b)
(8qcc/
8b)
(8qcc/
8bJ)
4b
(8a-L
8gJ)
=6
8ccL
(8qdd/
8cc)
(8qdd/
8cc)
(8qdd/
8ccJ)
4.cc
24cLL
24d
24enJJ
=7
(8qg/
8.fL)
16enJk
((8qg/
8.fL)
16eJk)
4f
(16ddLL
16cc
16bn
16a-JJ)
=8
8gL
8gg
8dd
8bnJ
2g
*>bM
*c:
=9||
!LO:TX:a:i:t=C-minor
*>B
*k[b-e-a-]
16qqg/LL
16qqan/
16qqbn/JJ
8.ccL
16gJk
8.ccL
16gJk
4.cc
24gLL
24a
24bJJ
=10
8ccL
8g
8e-
8gJ
2c
=11
(8.ee-L
16ddJk)
8.ee-L
16ddJk
4ee-
4gg
=12
8ffL
8ee-
8dd
8ee-J
2cc
=13
8b-L
(8qcc/
8b-)
(8qcc/
8b-)
(8qcc/
8b-J)
4b-
8ccL
8ddJ
=14
8ee-L
(8qff/
8ee-)
(8qff/
8ee-)
(8qff/
8ee-J)
4.ee-
8dd
=15
8.ffL
16ee-k
8dd
8ccJ
8bnL
8g
8an
8bJ
=16
8ccL
8cc
8g
8e-J
2c
*>eM
==
*-
